svgs/thin/films.svg

<svg xmlns="http://www.w3.org/2000/svg" viewBox="0 0 576 512"><!-- Font Awesome Pro 6.0.0-alpha2 by @fontawesome - https://fontawesome.com License - https://fontawesome.com/license (Commercial License) --><path d="M472 416C467.578 416 464 419.594 464 424C464 446.062 446.062 464 424 464H72C41.125 464 16 438.875 16 408V152C16 129.938 33.938 112 56 112C60.422 112 64 108.406 64 104S60.422 96 56 96C25.125 96 0 121.125 0 152V408C0 447.688 32.297 480 72 480H424C454.875 480 480 454.875 480 424C480 419.594 476.422 416 472 416ZM528 32H144C117.5 32 96 53.5 96 80V336C96 362.5 117.5 384 144 384H528C554.5 384 576 362.5 576 336V80C576 53.5 554.5 32 528 32ZM208 368H144C126.355 368 112 353.645 112 336V296H208V368ZM208 280H112V216H208V280ZM208 200H112V136H208V200ZM208 120H112V80C112 62.355 126.355 48 144 48H208V120ZM448 368H224V216H448V368ZM448 200H224V48H448V200ZM560 336C560 353.645 545.645 368 528 368H464V296H560V336ZM560 280H464V216H560V280ZM560 200H464V136H560V200ZM560 120H464V48H528C545.645 48 560 62.355 560 80V120Z"/></svg>

<svg xmlns="http://www.w3.org/2000/svg" viewBox="0 0 576 512"><!--! Font Awesome Pro 6.3.0 by @fontawesome - https://fontawesome.com License - https://fontawesome.com/license (Commercial License) Copyright 2023 Fonticons, Inc. --><path d="M472 416c-4.422 0-8 3.594-8 8c0 22.06-17.94 40-40 40h-352c-30.88 0-56-25.12-56-56v-256c0-22.06 17.94-40 40-40C60.42 112 64 108.4 64 104S60.42 96 56 96C25.13 96 0 121.1 0 152v256C0 447.7 32.3 480 72 480h352c30.88 0 56-25.12 56-56C480 419.6 476.4 416 472 416zM528 32h-384C117.5 32 96 53.5 96 80v256C96 362.5 117.5 384 144 384h384c26.5 0 48-21.5 48-48v-256C576 53.5 554.5 32 528 32zM208 368h-64c-17.64 0-32-14.36-32-32V296h96V368zM208 280h-96v-64h96V280zM208 200h-96v-64h96V200zM208 120h-96V80c0-17.64 14.36-32 32-32h64V120zM448 368H224V216h224V368zM448 200H224V48h224V200zM560 336c0 17.64-14.36 32-32 32h-64V296h96V336zM560 280h-96v-64h96V280zM560 200h-96v-64h96V200zM560 120h-96V48h64c17.64 0 32 14.36 32 32V120z"/></svg>
